src/views/images/error.svg

<svg width="48px" height="48px" viewBox="0 0 48 48" version="1.1" xmlns="http://www.w3.org/2000/svg" xmlns:xlink="http://www.w3.org/1999/xlink">
    <g fill="#CCCCCC">
        <path d="M24,48 C10.7664,48 0,37.2336 0,23.99952 C0,10.7664 10.7664,0 24,0 C37.23312,0 48,10.7664 48,23.99952 C48,37.2336 37.2336,48 24,48 L24,48 L24,48 Z M20.2835147,23.9477174 L12.9455324,16.5944477 C11.9267734,15.5735661 11.9267734,13.9183904 12.9455324,12.8975088 C13.9642915,11.8766274 15.6160261,11.8766274 16.6347852,12.8975088 L23.9727675,20.2507787 L31.3107498,12.8975088 C32.3295089,11.8766274 33.9812435,11.8766274 35.0000026,12.8975088 C36.0187616,13.9183904 36.0187616,15.5735661 35.0000026,16.5944477 L27.6620203,23.9477174 L35.0506162,31.3517062 C36.0693753,32.3725877 36.0693753,34.0277635 35.0506162,35.0486449 C34.0318572,36.0695264 32.3801226,36.0695264 31.3613635,35.0486449 L23.9727675,27.6446561 L16.5841715,35.0486449 C15.5654124,36.0695264 13.9136778,36.0695264 12.8949188,35.0486449 C11.8761597,34.0277635 11.8761597,32.3725877 12.8949188,31.3517062 L20.2835147,23.9477174 L20.2835147,23.9477174 Z M4,23.9368127 C4,34.9647652 12.9722928,43.937058 24.0002453,43.937058 C35.0281978,43.937058 44,34.9647652 44,23.9368127 C44,12.9083696 35.0286885,3.93705805 24.0002453,3.93705805 C12.9722928,3.93705805 4,12.9088602 4,23.9368127 L4,23.9368127 Z"></path>
    </g>
</svg>

<svg width="48" height="48" viewBox="0 0 48 48" xmlns="http://www.w3.org/2000/svg">
    <path d="M24 48c-13.234 0-24-10.766-24-24 0-13.233 10.766-24 24-24 13.233 0 24 10.766 24 24s-10.766 24-24 24zm-3.716-24.052l-7.338-7.353c-1.019-1.021-1.019-2.676 0-3.697s2.67-1.021 3.689 0l7.338 7.353 7.338-7.353c1.019-1.021 2.67-1.021 3.689 0 1.019 1.021 1.019 2.676 0 3.697l-7.338 7.353 7.389 7.404c1.019 1.021 1.019 2.676 0 3.697s-2.67 1.021-3.689 0l-7.389-7.404-7.389 7.404c-1.019 1.021-2.67 1.021-3.689 0-1.019-1.021-1.019-2.676 0-3.697l7.389-7.404zm-16.284-.011c0 11.028 8.972 20 20 20s20-8.972 20-20-8.971-20-20-20c-11.028 0-20 8.972-20 20z" fill="#ccc"/>
</svg>
